svgs/arrows/arrow-block-left.svg

<svg width="24" height="24" viewBox="0 0 24 24" fill="none" xmlns="http://www.w3.org/2000/svg">
<path d="M3 12L10 5V9H20.2C20.48 9 20.62 9 20.727 9.0545C20.8211 9.10243 20.8976 9.17892 20.9455 9.273C21 9.37996 21 9.51997 21 9.8V14.2C21 14.48 21 14.62 20.9455 14.727C20.8976 14.8211 20.8211 14.8976 20.727 14.9455C20.62 15 20.48 15 20.2 15H10V19L3 12Z" stroke="#1C1D20" stroke-width="1.5" stroke-linecap="round" stroke-linejoin="round"/>
</svg>

<svg fill="none" xmlns="http://www.w3.org/2000/svg" viewBox="0 0 24 24"><path d="m3 12 7-7v4h10.2c.28 0 .42 0 .527.055a.5.5 0 0 1 .218.218C21 9.38 21 9.52 21 9.8v4.4c0 .28 0 .42-.055.527a.5.5 0 0 1-.218.218C20.62 15 20.48 15 20.2 15H10v4l-7-7Z" stroke="#1C1D20" stroke-width="1.5" stroke-linecap="round" stroke-linejoin="round"/></svg>
